public/Linux.svg

<svg width="184" height="78" viewBox="0 0 184 78" fill="none" xmlns="http://www.w3.org/2000/svg">
<g clip-path="url(#clip0_9_78363)">
<path d="M44.2271 20.7656C44.2278 20.7968 44.2222 20.8278 44.2105 20.8567C44.1989 20.8857 44.1816 20.912 44.1595 20.934C44.1375 20.9561 44.1112 20.9734 44.0822 20.9851C44.0533 20.9967 44.0223 21.0023 43.9911 21.0016H43.7551C43.5191 21.0016 43.5191 20.7656 43.2831 20.5296C43.1549 20.4024 43.072 20.2366 43.0471 20.0576C43.0471 19.8216 43.0471 19.8216 43.2831 19.8216L43.7551 20.0576C43.9911 20.2936 44.2271 20.5296 44.2271 20.7656ZM39.9761 18.4036C39.9761 17.2226 39.5041 16.5146 38.7951 16.5146C38.7958 16.5458 38.7902 16.5768 38.7785 16.6057C38.7669 16.6347 38.7496 16.661 38.7275 16.683C38.7055 16.7051 38.6792 16.7224 38.6502 16.734C38.6213 16.7457 38.5903 16.7513 38.5591 16.7506V17.2226H39.2671C39.2671 17.6946 39.5031 17.9306 39.5031 18.4036H39.9751M48.2411 17.2226C48.7131 17.2226 48.9491 17.6946 49.1861 18.4036H49.6581C49.5686 18.3106 49.501 18.1988 49.4601 18.0763C49.4193 17.9538 49.4063 17.8238 49.4221 17.6956C49.4379 17.5675 49.4249 17.4374 49.3841 17.315C49.3433 17.1925 49.2756 17.0807 49.1861 16.9876C48.9501 16.7516 48.7141 16.5156 48.4781 16.5156C48.3509 16.6438 48.185 16.7268 48.0061 16.7516C48.0061 16.9876 48.2421 16.9876 48.2421 17.2236M41.1571 21.0026C40.9211 21.0026 40.9211 21.0026 40.9211 20.7666C40.9053 20.6385 40.9183 20.5084 40.9591 20.386C41 20.2635 41.0676 20.1517 41.1571 20.0586C41.4143 20.0708 41.6667 19.9867 41.8651 19.8226C41.8963 19.8219 41.9273 19.8276 41.9562 19.8392C41.9852 19.8508 42.0115 19.8682 42.0335 19.8902C42.0556 19.9123 42.0729 19.9386 42.0845 19.9675C42.0962 19.9965 42.1018 20.0274 42.1011 20.0586C42.1011 20.2946 41.8651 20.5306 41.3931 21.0036L41.1571 21.0026ZM38.5571 20.7676C37.6121 20.2956 37.3761 19.5866 37.3761 18.4056C37.3264 18.1123 37.3431 17.8116 37.4247 17.5256C37.5064 17.2396 37.6511 16.9755 37.8481 16.7526C37.9589 16.5359 38.1284 16.3546 38.3372 16.2294C38.546 16.1043 38.7857 16.0402 39.0291 16.0446C39.5011 16.0446 39.7371 16.2806 40.2101 16.7526C40.4789 17.4315 40.6382 18.1488 40.6821 18.8776V19.3496H40.9181V19.1136C41.1541 19.1136 41.1541 18.6416 41.1541 17.6966C41.226 16.9562 41.0607 16.212 40.6821 15.5716C40.5102 15.2173 40.242 14.9185 39.9084 14.7094C39.5747 14.5002 39.1889 14.389 38.7951 14.3886C38.4319 14.3928 38.0787 14.5083 37.7831 14.7194C37.4875 14.9306 37.2638 15.2273 37.1421 15.5696C36.7063 16.4477 36.5107 17.4255 36.5751 18.4036C36.5802 18.9385 36.6961 19.4665 36.9156 19.9543C37.135 20.442 37.4532 20.879 37.8501 21.2376C38.0861 21.0016 38.3221 21.0016 38.5581 20.7656M68.0781 54.0656C68.3141 54.0656 68.3141 53.9716 68.3141 53.7586C68.2899 53.4069 68.1934 53.064 68.0309 52.7513C67.8683 52.4385 67.643 52.1625 67.3691 51.9406C66.4372 51.1536 65.2797 50.6823 64.0631 50.5946C63.8271 50.5706 63.5911 50.5706 63.5911 50.5706C63.437 50.5317 63.2779 50.5159 63.1191 50.5236C62.8831 50.4996 62.4111 50.4526 62.1741 50.4056C62.795 48.5233 63.1139 46.5546 63.1191 44.5726C63.2203 42.6589 62.7252 40.761 61.7021 39.1406C61.3832 38.5548 60.9453 38.0421 60.4166 37.6353C59.888 37.2286 59.2801 36.9368 58.6321 36.7786C58.3961 37.0146 58.3961 37.0146 58.3961 37.2506C59.7303 37.7901 60.8219 38.7977 61.4661 40.0846C62.1182 41.5723 62.4406 43.1836 62.4111 44.8076C62.3686 46.7916 61.9685 48.7517 61.2301 50.5936C60.0797 51.1308 59.158 52.0599 58.6301 53.2146C58.6301 53.4276 58.6301 53.5456 58.8661 53.5456C59.0512 53.3639 59.21 53.1572 59.3381 52.9316C59.8101 52.5316 60.0461 52.1316 60.5191 51.7316C61.0765 51.3493 61.7325 51.1361 62.4081 51.1176C63.4543 51.0824 64.4972 51.2523 65.4781 51.6176C66.1307 51.7533 66.7154 52.1126 67.1311 52.6336C67.3671 52.9876 67.6031 53.3183 67.8391 53.6256C67.8386 53.7141 67.8598 53.8013 67.901 53.8796C67.9422 53.9579 68.002 54.0249 68.0751 54.0746M46.3521 19.8206C46.1378 19.4666 46.0543 19.0488 46.1161 18.6396C46.0181 17.8978 46.1853 17.1452 46.5881 16.5146C46.7652 16.3081 46.9818 16.1391 47.2251 16.0176C47.4685 15.896 47.7337 15.8243 48.0051 15.8066C48.3307 15.8425 48.6454 15.9448 48.9298 16.1074C49.2141 16.27 49.462 16.4892 49.6581 16.7516C49.9254 17.3486 50.0852 17.9881 50.1301 18.6406C50.2002 19.1076 50.0939 19.5839 49.8319 19.9767C49.57 20.3696 49.1711 20.6508 48.7131 20.7656C48.8404 20.8938 49.0062 20.9768 49.1851 21.0016C49.6571 21.0016 49.8931 21.2376 50.3661 21.4736C50.624 20.3085 50.7819 19.1236 50.8381 17.9316C50.9162 16.8592 50.6698 15.7882 50.1311 14.8576C49.8294 14.5384 49.4619 14.2886 49.054 14.1254C48.6462 13.9622 48.2078 13.8896 47.7691 13.9126C47.0058 13.9303 46.2655 14.177 45.6441 14.6206C45.2068 15.1553 44.958 15.8192 44.9361 16.5096C44.9183 17.5754 45.1614 18.6293 45.6441 19.5796C45.8801 19.5796 46.1161 19.8156 46.3521 19.8156M49.1861 23.5946C46.1161 25.7196 43.7541 26.6646 41.8651 26.6646C40.1188 26.6044 38.4483 25.9362 37.1421 24.7756C37.3243 25.1991 37.5624 25.5963 37.8501 25.9566L39.2671 27.3736C39.6969 27.8169 40.2105 28.1705 40.778 28.4137C41.3455 28.657 41.9557 28.7851 42.5731 28.7906C44.2261 28.7906 46.1151 27.8456 48.4731 26.1906L50.5981 24.7736C50.8605 24.5776 51.0798 24.3297 51.2423 24.0453C51.4049 23.7609 51.5073 23.4462 51.5431 23.1206C51.5431 22.8846 51.5431 22.6486 51.3071 22.6486C51.0711 22.1766 49.8901 21.4676 47.5281 20.7596C46.0516 20.0076 44.4518 19.5276 42.8051 19.3426C41.535 19.5501 40.3259 20.0338 39.2631 20.7596C37.8461 21.7046 36.9011 22.6486 36.9011 23.5936C37.0921 23.8053 37.2512 24.0439 37.3731 24.3016C38.5264 25.4079 40.0302 26.0761 41.6241 26.1906C43.5131 26.1906 45.8751 25.2456 48.9451 22.8846V23.3566C48.9763 23.3559 49.0073 23.3616 49.0362 23.3732C49.0652 23.3848 49.0915 23.4022 49.1135 23.4242C49.1356 23.4463 49.1529 23.4726 49.1645 23.5015C49.1762 23.5305 49.1818 23.5614 49.1811 23.5926M54.6131 71.2926C55.1627 72.3194 56.0501 73.1248 57.1253 73.5723C58.2005 74.0199 59.3973 74.0822 60.5131 73.7486C60.9335 73.6821 61.3357 73.5292 61.6941 73.2996C61.9301 73.1346 62.1661 72.9686 62.4021 72.7796C62.6562 72.6812 62.8947 72.5465 63.1101 72.3796L67.1251 68.9076C68.0688 68.1305 69.0989 67.4647 70.1951 66.9236C70.9567 66.4875 71.7457 66.101 72.5571 65.7666C73.1645 65.6098 73.7292 65.3194 74.2101 64.9166C74.5053 64.523 74.6743 64.0492 74.6951 63.5576C74.6671 63.2397 74.5675 62.9323 74.4039 62.6584C74.2402 62.3844 74.0167 62.151 73.7501 61.9756C73.3267 61.6303 72.8475 61.3598 72.3331 61.1756C71.713 60.889 71.1523 60.4884 70.6801 59.9946C70.0964 59.2356 69.6914 58.3548 69.4951 57.4176L69.2591 56.0476C69.0231 55.4096 69.0231 54.9376 68.7871 54.6776C68.7871 54.6066 68.7871 54.5836 68.5511 54.5836C68.3576 54.6085 68.1722 54.6766 68.0086 54.7829C67.845 54.8892 67.7075 55.0309 67.6061 55.1976C67.1341 55.5976 66.6611 56.0476 66.1891 56.5206C65.9531 56.9926 65.2441 57.4206 64.7721 57.8206C64.1998 58.1718 63.5525 58.3822 62.8831 58.4346C60.9941 58.4346 60.0491 57.9146 59.3411 56.8996C58.8859 56.0831 58.5667 55.1978 58.3961 54.2786C57.9241 53.8786 57.6881 53.6646 57.2151 53.6646C56.0341 53.6646 55.5621 54.8926 55.5621 57.3726V64.7176C55.4383 65.1813 55.3593 65.6558 55.3261 66.1346C55.1211 66.9512 55.0415 67.7941 55.0901 68.6346L54.6181 71.2576V71.2976M20.3741 70.0476C22.9643 70.4747 25.5043 71.1639 27.9551 72.1046C29.6393 72.8206 31.3962 73.3514 33.1951 73.6876C34.0081 73.6828 34.8084 73.4858 35.5307 73.1127C36.253 72.7395 36.8768 72.2009 37.3511 71.5406C37.556 71.0284 37.6368 70.475 37.5871 69.9256C37.5871 67.6936 36.2411 64.8676 33.5491 61.4476L31.9461 59.2976C31.4925 58.6359 31.0749 57.9503 30.6951 57.2436C30.3059 56.5092 29.8718 55.7995 29.3951 55.1186C29.0117 54.4968 28.5243 53.9454 27.9541 53.4886C27.3544 52.9589 26.633 52.5859 25.8541 52.4026C25.0908 52.4744 24.3785 52.8179 23.8471 53.3706C23.5266 53.7969 23.3303 54.3036 23.2801 54.8346C23.2753 55.0216 23.2331 55.2057 23.156 55.3761C23.0789 55.5464 22.9684 55.6996 22.8311 55.8266C22.4577 56.0089 22.06 56.1362 21.6501 56.2046C21.5321 56.2046 21.3191 56.2046 21.0121 56.2286H20.3741C19.5065 56.1705 18.6366 56.2995 17.8231 56.6066C17.2529 57.2345 16.9327 58.0496 16.9231 58.8976C16.96 59.5425 17.0547 60.1827 17.2061 60.8106C17.371 61.4917 17.4678 62.1874 17.4951 62.8876C17.4798 63.9169 17.177 64.9213 16.6211 65.7876C16.1421 66.4753 15.8336 67.2671 15.7211 68.0976C15.9571 69.0136 17.5161 69.6586 20.3731 70.0366M28.2371 48.5696C28.3042 46.6525 28.7458 44.7671 29.5371 43.0196C30.1245 41.394 30.9785 39.8776 32.0641 38.5326C32.0171 38.2966 31.8991 38.2966 31.7101 38.2966L31.4741 38.0606C30.4115 39.5025 29.569 41.0942 28.9741 42.7836C28.0961 44.5022 27.5817 46.3834 27.4631 48.3096C27.4494 49.2879 27.7025 50.2514 28.1951 51.0966C29.2685 52.4 30.5332 53.5332 31.9461 54.4576L34.4461 56.0876C37.1151 58.4016 38.5321 60.0076 38.5321 60.9526C38.5113 61.266 38.4144 61.5697 38.2497 61.8372C38.085 62.1046 37.8576 62.3279 37.5871 62.4876C37.3887 62.7396 37.1383 62.9459 36.8531 63.0925C36.5679 63.2392 36.2545 63.3228 35.9341 63.3376C35.8871 63.3376 35.8631 63.3846 35.8631 63.5026C35.8631 63.5266 36.0991 64.0026 36.5951 64.9196C37.5871 66.2656 39.7121 66.9266 42.5461 66.9266C44.965 66.9878 47.3598 66.4351 49.5072 65.3201C51.6546 64.2051 53.4845 62.5642 54.8261 60.5506C54.9253 59.8024 54.8444 59.0413 54.5901 58.3306V57.4576C54.5122 56.2656 54.7568 55.0745 55.2981 54.0096C55.4414 53.6879 55.6725 53.4131 55.9649 53.2168C56.2573 53.0204 56.5991 52.9105 56.9511 52.8996C57.468 52.9115 57.9663 53.0943 58.3681 53.4196C58.5551 51.8208 58.634 50.2111 58.6041 48.6016C58.7038 46.7311 58.5449 44.8558 58.1321 43.0286C57.9188 41.7953 57.5206 40.6012 56.9511 39.4866L55.5391 37.3576C55.0671 36.6496 54.8311 35.9406 54.3581 35.2326C54.0672 34.3151 53.9083 33.3609 53.8861 32.3986C53.1771 31.2156 52.7051 30.0346 51.9951 28.8576C51.5231 27.6766 51.0501 26.4956 50.5781 25.5516L48.4531 27.2046C46.0951 28.8576 44.2031 29.5576 42.5501 29.5576C41.1331 29.5576 39.9501 29.3216 39.2441 28.3766L37.8271 27.1956C37.786 28.1039 37.5442 28.9919 37.1191 29.7956L35.6311 32.6296C35.1369 33.6837 34.7722 34.7938 34.5451 35.9356C34.5067 36.2571 34.4354 36.5738 34.3321 36.8806L32.5611 40.4226C30.8449 43.3239 29.8565 46.5974 29.6801 49.9636C29.6814 50.5256 29.7289 51.0865 29.8221 51.6406C29.3155 51.3094 28.9034 50.8524 28.6261 50.3143C28.3488 49.7763 28.2158 49.1755 28.2401 48.5706M45.1481 70.9146C42.7235 70.7937 40.3025 71.2174 38.0631 72.1546V72.0836C37.562 72.7616 36.9064 73.3102 36.1507 73.684C35.395 74.0577 34.5611 74.2458 33.7181 74.2326C31.8485 74.0688 30.0159 73.6147 28.2861 72.8866C26.1251 72.1264 23.925 71.4824 21.6951 70.9576C21.5061 70.9036 21.0811 70.8226 20.3951 70.7146C19.7341 70.6086 19.1201 70.4996 18.5771 70.3906C18.0084 70.2651 17.4483 70.1034 16.9001 69.9066C16.3854 69.7587 15.9042 69.5125 15.4831 69.1816C15.3332 69.0586 15.212 68.9045 15.1277 68.7299C15.0434 68.5553 14.9982 68.3645 14.9951 68.1706C15.0034 67.7549 15.0864 67.344 15.2401 66.9576C15.3911 66.6976 15.5561 66.4376 15.7221 66.2016C15.8775 65.9703 16.0113 65.7253 16.1221 65.4696C16.2557 65.2617 16.3667 65.0401 16.4531 64.8086C16.5599 64.591 16.6392 64.3609 16.6891 64.1236C16.7435 63.8913 16.775 63.6541 16.7831 63.4156C16.7831 63.1796 16.6891 62.4706 16.5001 61.2156C16.3627 60.4421 16.2682 59.6616 16.2171 58.8776C16.1584 57.9938 16.4276 57.1194 16.9731 56.4216C17.1492 56.17 17.3774 55.9593 17.6423 55.804C17.9073 55.6487 18.2026 55.5524 18.5081 55.5216H21.2241C21.5967 55.4705 21.9524 55.3336 22.2631 55.1216C22.4281 54.7436 22.5701 54.4366 22.6631 54.1536C22.7811 53.8706 22.8281 53.6536 22.8761 53.5636C22.9231 53.4216 22.9701 53.2806 23.0181 53.1636C23.1254 52.9703 23.252 52.7883 23.3961 52.6206C23.198 52.3556 23.098 52.0301 23.1131 51.6996C23.1003 51.4858 23.1161 51.2713 23.1601 51.0616C23.2948 49.7697 23.723 48.5257 24.4121 47.4246L25.2391 45.9366C25.8232 44.911 26.3513 43.8544 26.8211 42.7716C27.356 41.3877 27.7904 39.967 28.1211 38.5206C28.6021 36.6734 29.5261 34.9713 30.8131 33.5616L32.5841 31.4366C33.561 30.3686 34.3947 29.1779 35.0641 27.8946C35.5038 26.9302 35.7371 25.8845 35.7491 24.8246C35.7491 24.3526 35.6311 22.9356 35.3711 20.5736C35.1351 18.2116 35.0171 15.8506 35.0171 13.7246C34.9873 12.3723 35.1383 11.022 35.4661 9.70962C35.7648 8.49856 36.3295 7.36922 37.1191 6.40362C37.8708 5.31517 38.9443 4.48924 40.1891 4.04162C41.7936 3.54174 43.4679 3.3027 45.1481 3.33362C45.8646 3.29515 46.5825 3.37488 47.2731 3.56962C48.2527 3.63335 49.2127 3.87319 50.1071 4.27762C51.0559 4.68737 51.9335 5.24534 52.7071 5.93062C53.6764 6.80009 54.4772 7.84081 55.0691 9.00062C55.629 10.5287 56.0249 12.1119 56.2501 13.7236C56.4861 14.9046 56.4861 16.0856 56.7221 17.7386C56.7221 19.1556 56.9581 20.1006 56.9581 20.8086C57.1941 21.5166 57.1941 22.4616 57.4301 23.6426C57.6003 24.5553 57.9196 25.4337 58.3751 26.2426C58.8367 27.2367 59.3901 28.1854 60.0281 29.0766C60.7361 30.2576 61.6811 31.4386 62.6281 32.8556C64.6665 35.053 66.2692 37.6174 67.3511 40.4126C68.6338 43.1363 69.2798 46.1163 69.2401 49.1266C69.2434 50.7355 69.0047 52.3357 68.5321 53.8736C68.7222 53.8651 68.911 53.909 69.0777 54.0008C69.2444 54.0925 69.3826 54.2285 69.4771 54.3936C69.8346 55.0641 70.0741 55.791 70.1851 56.5426L70.4211 58.2906C70.6353 58.8918 71.0498 59.401 71.5951 59.7326C72.0743 60.1878 72.6351 60.5485 73.2481 60.7956C73.8387 61.0554 74.394 61.3887 74.9011 61.7876C75.1134 61.9751 75.2855 62.2036 75.4072 62.4593C75.5288 62.715 75.5975 62.9927 75.6091 63.2756C75.6316 63.612 75.5798 63.9492 75.4574 64.2634C75.3351 64.5776 75.1452 64.861 74.9011 65.0936C74.4503 65.5733 73.8797 65.924 73.2481 66.1096C72.7761 66.3456 71.8311 66.8176 70.4141 67.4836C69.1633 68.232 67.9783 69.0854 66.8721 70.0346L64.5101 72.0446C63.7298 72.8121 62.8563 73.4786 61.9101 74.0286C61.1146 74.4661 60.2178 74.6861 59.3101 74.6666L57.6571 74.4776C56.8489 74.3181 56.0881 73.9755 55.433 73.4761C54.7779 72.9766 54.246 72.3337 53.8781 71.5966C50.98 71.2101 48.063 70.9814 45.1401 70.9116" fill="black"/>
<path d="M85.4656 56.707V35.007H90.4876V52.615H101.369V56.707H85.4656ZM106.252 37.704C104.454 37.704 103.245 36.526 103.245 35.007C103.245 33.488 104.454 32.31 106.252 32.31C108.05 32.31 109.259 33.426 109.259 34.914C109.259 36.526 108.05 37.704 106.252 37.704ZM103.834 56.707V40.029H108.67V56.707H103.834ZM123.295 39.781C127.232 39.781 130.208 42.075 130.208 47.159V56.707H125.372V47.903C125.372 45.206 124.132 43.966 121.993 43.966C119.668 43.966 117.994 45.392 117.994 48.461V56.707H113.158V40.029H117.777V41.982C119.079 40.556 121.032 39.781 123.295 39.781ZM146.557 40.029H151.393V56.707H146.805V54.723C145.534 56.18 143.674 56.955 141.628 56.955C137.443 56.955 134.498 54.599 134.498 49.453V40.029H139.334V48.74C139.334 51.53 140.574 52.77 142.713 52.77C144.945 52.77 146.557 51.344 146.557 48.275V40.029ZM171.963 56.707H166.476L162.818 51.592L159.036 56.707H153.766L160.183 48.306L153.983 40.029H159.408L162.942 44.896L166.569 40.029H171.715L165.515 48.182L171.963 56.707Z" fill="#333C5E"/>
</g>
<defs>
<clipPath id="clip0_9_78363">
<rect width="184" height="78" fill="white"/>
</clipPath>
</defs>
</svg>

<svg xmlns="http://www.w3.org/2000/svg" width="184" height="78" fill="none" viewBox="0 0 184 78"><g clip-path="url(#a)"><path fill="#000" d="M44.227 20.766a.23.23 0 0 1-.145.22.2.2 0 0 1-.09.016h-.237c-.236 0-.236-.236-.472-.472a.83.83 0 0 1-.236-.472c0-.236 0-.236.236-.236l.472.236c.236.236.472.472.472.708m-4.25-2.362c0-1.181-.473-1.89-1.182-1.89a.23.23 0 0 1-.145.22.2.2 0 0 1-.09.017v.472h.707c0 .472.236.708.236 1.18h.472m8.266-1.18c.472 0 .708.472.945 1.18h.472a.87.87 0 0 1-.236-.707.87.87 0 0 0-.236-.708c-.236-.236-.472-.472-.708-.472a.83.83 0 0 1-.472.236c0 .236.236.236.236.472m-7.085 3.779c-.236 0-.236 0-.236-.236a.87.87 0 0 1 .236-.708c.257.012.51-.072.708-.236a.23.23 0 0 1 .236.236c0 .236-.236.472-.708.945zm-2.6-.235c-.945-.472-1.18-1.181-1.18-2.362a2 2 0 0 1 .471-1.653 1.3 1.3 0 0 1 1.181-.708c.472 0 .708.236 1.181.708a6.9 6.9 0 0 1 .472 2.125v.472h.236v-.236c.236 0 .236-.472.236-1.417a3.5 3.5 0 0 0-.472-2.125 2.1 2.1 0 0 0-1.887-1.183 1.78 1.78 0 0 0-1.653 1.18 5.55 5.55 0 0 0-.567 2.835 3.87 3.87 0 0 0 1.275 2.834c.236-.236.472-.236.708-.472m29.52 33.3c.236 0 .236-.094.236-.307a2.57 2.57 0 0 0-.945-1.818 5.77 5.77 0 0 0-3.306-1.346c-.236-.024-.472-.024-.472-.024a1.6 1.6 0 0 0-.472-.047c-.236-.024-.708-.071-.945-.118.621-1.883.94-3.851.945-5.833a9.26 9.26 0 0 0-1.417-5.432 4.79 4.79 0 0 0-3.07-2.362c-.236.236-.236.236-.236.472a5.9 5.9 0 0 1 3.07 2.834c.652 1.487.975 3.099.945 4.723a16.5 16.5 0 0 1-1.18 5.786 5.35 5.35 0 0 0-2.6 2.62c0 .214 0 .332.235.332q.279-.275.472-.614c.472-.4.708-.8 1.181-1.2a3.5 3.5 0 0 1 1.89-.614 8 8 0 0 1 3.07.5 2.86 2.86 0 0 1 1.652 1.016q.354.53.708.992a.54.54 0 0 0 .236.449M46.352 19.82a1.77 1.77 0 0 1-.236-1.181 3.18 3.18 0 0 1 .472-2.125 2.04 2.04 0 0 1 1.417-.708 2.4 2.4 0 0 1 1.653.945c.267.597.427 1.236.472 1.889a1.9 1.9 0 0 1-1.417 2.125.83.83 0 0 0 .472.236c.472 0 .708.236 1.181.472.258-1.166.416-2.35.472-3.542a5.36 5.36 0 0 0-.707-3.074 3.03 3.03 0 0 0-2.362-.945 3.8 3.8 0 0 0-2.125.708 3.14 3.14 0 0 0-.708 1.889 6.54 6.54 0 0 0 .708 3.07c.236 0 .472.236.708.236m2.834 3.779c-3.07 2.125-5.432 3.07-7.32 3.07a7.5 7.5 0 0 1-4.724-1.89c.182.424.42.821.708 1.182l1.417 1.417a4.66 4.66 0 0 0 3.306 1.417c1.653 0 3.542-.945 5.9-2.6l2.125-1.417a2.39 2.39 0 0 0 .945-1.653c0-.236 0-.472-.236-.472-.236-.472-1.417-1.181-3.779-1.89a13.8 13.8 0 0 0-4.723-1.416 8.8 8.8 0 0 0-3.542 1.417c-1.417.945-2.362 1.889-2.362 2.834.191.211.35.45.472.708a6.85 6.85 0 0 0 4.251 1.889c1.89 0 4.251-.945 7.321-3.306v.472a.23.23 0 0 1 .236.236m5.432 47.7a5.05 5.05 0 0 0 5.9 2.456c.42-.067.823-.22 1.181-.45a13 13 0 0 0 .708-.52c.254-.098.493-.233.708-.4l4.015-3.471a16 16 0 0 1 3.07-1.984q1.144-.656 2.362-1.157a4.2 4.2 0 0 0 1.653-.85c.295-.394.464-.868.485-1.36a2.12 2.12 0 0 0-.945-1.581 4.8 4.8 0 0 0-1.417-.8 5.5 5.5 0 0 1-1.653-1.181 6.4 6.4 0 0 1-1.185-2.577l-.236-1.37c-.236-.638-.236-1.11-.472-1.37 0-.071 0-.094-.236-.094a1.3 1.3 0 0 0-.945.614c-.472.4-.945.85-1.417 1.323-.236.472-.945.9-1.417 1.3a4.25 4.25 0 0 1-1.889.614c-1.889 0-2.834-.52-3.542-1.535a8.6 8.6 0 0 1-.945-2.621c-.472-.4-.708-.614-1.18-.614-1.182 0-1.654 1.228-1.654 3.708v7.345a7.5 7.5 0 0 0-.236 1.417 8.3 8.3 0 0 0-.236 2.5l-.472 2.623v.04m-34.244-1.25c2.59.427 5.13 1.116 7.581 2.057a25.3 25.3 0 0 0 5.24 1.583 5.16 5.16 0 0 0 4.156-2.147 3.5 3.5 0 0 0 .236-1.615q0-3.348-4.038-8.478l-1.603-2.15a22 22 0 0 1-1.25-2.054 20 20 0 0 0-1.3-2.125 6.4 6.4 0 0 0-1.442-1.63 4.85 4.85 0 0 0-2.1-1.086 3.2 3.2 0 0 0-2.007.968c-.32.426-.517.933-.567 1.464a1.4 1.4 0 0 1-.449.992c-.373.182-.771.31-1.18.378-.119 0-.332 0-.639.024h-.638a6.1 6.1 0 0 0-2.55.378 3.47 3.47 0 0 0-.9 2.29c.036.645.13 1.286.282 1.914.165.68.262 1.376.29 2.077a5.5 5.5 0 0 1-.875 2.9 5.3 5.3 0 0 0-.9 2.31c.236.916 1.795 1.56 4.652 1.939m7.864-21.467a14.7 14.7 0 0 1 1.3-5.55 15.6 15.6 0 0 1 2.527-4.487c-.047-.236-.165-.236-.354-.236l-.236-.236a18 18 0 0 0-2.5 4.723 14 14 0 0 0-1.51 5.526c-.015.978.239 1.941.731 2.787a16.7 16.7 0 0 0 3.751 3.36l2.5 1.63c2.67 2.315 4.086 3.92 4.086 4.866a1.93 1.93 0 0 1-.945 1.535 2.23 2.23 0 0 1-1.653.85c-.047 0-.07.047-.07.165 0 .024.235.5.731 1.417.992 1.346 3.117 2.007 5.951 2.007a14.32 14.32 0 0 0 12.28-6.376 4.74 4.74 0 0 0-.236-2.22v-.873a6.65 6.65 0 0 1 .708-3.448 1.87 1.87 0 0 1 1.653-1.11 2.34 2.34 0 0 1 1.417.52c.187-1.6.266-3.209.236-4.818.1-1.87-.06-3.746-.472-5.573a12.5 12.5 0 0 0-1.18-3.542l-1.413-2.13c-.472-.707-.708-1.416-1.18-2.124-.292-.918-.45-1.872-.473-2.834-.709-1.183-1.18-2.364-1.89-3.541-.473-1.181-.946-2.362-1.418-3.306l-2.125 1.653c-2.358 1.653-4.25 2.353-5.903 2.353-1.417 0-2.6-.236-3.306-1.181l-1.417-1.181a6.16 6.16 0 0 1-.708 2.6l-1.488 2.834a14.4 14.4 0 0 0-1.086 3.306q-.058.483-.213.945l-1.77 3.542a20.9 20.9 0 0 0-2.882 9.54q.002.846.142 1.678a3.5 3.5 0 0 1-1.582-3.07m16.908 22.344a16.26 16.26 0 0 0-7.085 1.24v-.071a5.3 5.3 0 0 1-4.345 2.149 18 18 0 0 1-5.432-1.346 64 64 0 0 0-6.59-1.93c-.19-.053-.615-.134-1.3-.242a48 48 0 0 1-1.819-.324 14 14 0 0 1-1.677-.484 4.2 4.2 0 0 1-1.417-.725 1.34 1.34 0 0 1-.488-1.011 3.5 3.5 0 0 1 .245-1.213c.151-.26.316-.52.482-.756q.234-.349.4-.732.201-.313.331-.661.16-.328.236-.685.082-.35.094-.708c0-.236-.094-.945-.283-2.2a21 21 0 0 1-.283-2.338 3.6 3.6 0 0 1 .756-2.456 2.13 2.13 0 0 1 1.535-.9h2.716a2.4 2.4 0 0 0 1.04-.4c.164-.378.306-.685.4-.968.117-.283.164-.5.212-.59.047-.142.094-.283.142-.4q.161-.292.378-.543a1.43 1.43 0 0 1-.283-.921 2.4 2.4 0 0 1 .047-.638 8.5 8.5 0 0 1 1.252-3.637l.827-1.488a33 33 0 0 0 1.582-3.165c.535-1.384.97-2.805 1.3-4.251a11.74 11.74 0 0 1 2.692-4.96l1.771-2.124a16.7 16.7 0 0 0 2.48-3.542c.44-.965.673-2.01.685-3.07 0-.472-.118-1.89-.378-4.251a70 70 0 0 1-.354-6.85c-.03-1.352.121-2.702.45-4.014a8.4 8.4 0 0 1 1.652-3.306 6.34 6.34 0 0 1 3.07-2.362 15.7 15.7 0 0 1 4.96-.708 6.5 6.5 0 0 1 2.124.236c.98.063 1.94.303 2.834.708.949.41 1.827.967 2.6 1.653.97.87 1.77 1.91 2.362 3.07.56 1.528.956 3.11 1.181 4.723.236 1.18.236 2.362.472 4.015 0 1.417.236 2.362.236 3.07.236.708.236 1.653.472 2.834.17.912.49 1.79.945 2.6a17.6 17.6 0 0 0 1.653 2.834c.708 1.18 1.653 2.362 2.6 3.779a23.7 23.7 0 0 1 4.723 7.557 19.84 19.84 0 0 1 1.89 8.714 16 16 0 0 1-.709 4.747 1.03 1.03 0 0 1 .945.52c.358.67.597 1.397.708 2.149l.236 1.748a2.78 2.78 0 0 0 1.174 1.442 5.3 5.3 0 0 0 1.653 1.063c.59.26 1.146.593 1.653.992a2.1 2.1 0 0 1 .708 1.488 2.3 2.3 0 0 1-.708 1.818 3.7 3.7 0 0 1-1.653 1.016c-.472.236-1.417.708-2.834 1.374a25.7 25.7 0 0 0-3.542 2.55l-2.362 2.01a13 13 0 0 1-2.6 1.985 5.17 5.17 0 0 1-2.6.638l-1.653-.19a5.39 5.39 0 0 1-3.779-2.88 81 81 0 0 0-8.738-.685"/><path fill="#333c5e" d="M85.466 56.707v-21.7h5.022v17.608h10.881v4.092zm20.786-19.003c-1.798 0-3.007-1.178-3.007-2.697s1.209-2.697 3.007-2.697 3.007 1.116 3.007 2.604c0 1.612-1.209 2.79-3.007 2.79m-2.418 19.003V40.029h4.836v16.678zm19.461-16.926c3.937 0 6.913 2.294 6.913 7.378v9.548h-4.836v-8.804c0-2.697-1.24-3.937-3.379-3.937-2.325 0-3.999 1.426-3.999 4.495v8.246h-4.836V40.029h4.619v1.953c1.302-1.426 3.255-2.201 5.518-2.201m23.262.248h4.836v16.678h-4.588v-1.984c-1.271 1.457-3.131 2.232-5.177 2.232-4.185 0-7.13-2.356-7.13-7.502v-9.424h4.836v8.711c0 2.79 1.24 4.03 3.379 4.03 2.232 0 3.844-1.426 3.844-4.495zm25.406 16.678h-5.487l-3.658-5.115-3.782 5.115h-5.27l6.417-8.401-6.2-8.277h5.425l3.534 4.867 3.627-4.867h5.146l-6.2 8.153z"/></g><defs><clipPath id="a"><path fill="#fff" d="M0 0h184v78H0z"/></clipPath></defs></svg>
